!!!COM: Louise Reichardt
!!!CNT: Deutsch
!!!TXO: Deutsch
!!!OTL: Hier Liegt ein Spielmann Begraben
!!!LYR: Aus des Knaben Wunderhorn (von Arnim and Brentano)
!!!OPR: 
!!!OPS: No opus information available
!!!ONM: No. 5
!!!ENC: Ben Fuhrman
!!!YOR: Louise Reichardt: Songs
!!!YOR: New York, Da Capo Press, 1981
!!!ODT: 1800 - 1826
!!NB: Only vocal melody encoded.
!!NB: First instance of melodic material only encoded.
!!created: 2/17/10 2:08PM
!!proofed and posted: 2/17/10 2:08PM
**kern	**silbe
*clef G2	*
*k[f#c#]	*
*M2/4	*
*MM[Ba2urisch lustig]	*
=1	=1
{8dd	Gu-
8dd	-ten
8cc#	Mor-
8cc#	-gen
=2	=2
4dd	Spiel-
8a	-mann,
8a	wo
=3	=3
(8b	bleibst
8dd)	|
8b	du
8dd	so
=4	=4
4a}	lang?}
8r	.
{8a	{da
=5	=5
4a	drun-
8g	-ten,
8a	da
=6	=6
8f	dro-
8a	-ben,
8r	.
8a	da
=7	=7
4a	tanz-
8g	-ten
8a	die
=8	=8
8f#	Schwa-
8a}	-ben}
{8a	{mit
8a	der
=9	=9
8cc#	klein-
8dd	-en
8ee	kil-
8cc#	-le-
=10	=10
8dd	-kei-
8a	-a
8a	mit
8a	der
=11	=11
4a	gros-
8g	-sen
8e	kum
=12	=12
4d}	kum.}
4r	.
==	==
*-	*-
